components/Common/Svg/svgs/titledRds.svg

<svg width="114" height="145" viewBox="0 0 114 145" fill="none" xmlns="http://www.w3.org/2000/svg">
<path d="M8.802 132.21H3.33L2.322 135H0.594L5.13 122.526H7.02L11.538 135H9.81L8.802 132.21ZM8.334 130.878L6.066 124.542L3.798 130.878H8.334ZM25.3769 124.956C26.1449 124.956 26.8289 125.118 27.4289 125.442C28.0289 125.754 28.5029 126.228 28.8509 126.864C29.1989 127.5 29.3729 128.274 29.3729 129.186V135H27.7529V129.42C27.7529 128.436 27.5069 127.686 27.0149 127.17C26.5349 126.642 25.8809 126.378 25.0529 126.378C24.2009 126.378 23.5229 126.654 23.0189 127.206C22.5149 127.746 22.2629 128.532 22.2629 129.564V135H20.6429V129.42C20.6429 128.436 20.3969 127.686 19.9049 127.17C19.4249 126.642 18.7709 126.378 17.9429 126.378C17.0909 126.378 16.4129 126.654 15.9089 127.206C15.4049 127.746 15.1529 128.532 15.1529 129.564V135H13.5149V125.136H15.1529V126.558C15.4769 126.042 15.9089 125.646 16.4489 125.37C17.0009 125.094 17.6069 124.956 18.2669 124.956C19.0949 124.956 19.8269 125.142 20.4629 125.514C21.0989 125.886 21.5729 126.432 21.8849 127.152C22.1609 126.456 22.6169 125.916 23.2529 125.532C23.8889 125.148 24.5969 124.956 25.3769 124.956ZM31.4478 130.032C31.4478 129.024 31.6518 128.142 32.0598 127.386C32.4678 126.618 33.0258 126.024 33.7338 125.604C34.4538 125.184 35.2518 124.974 36.1278 124.974C36.9918 124.974 37.7418 125.16 38.3778 125.532C39.0138 125.904 39.4878 126.372 39.7998 126.936V125.136H41.4558V135H39.7998V133.164C39.4758 133.74 38.9898 134.22 38.3418 134.604C37.7058 134.976 36.9618 135.162 36.1098 135.162C35.2338 135.162 34.4418 134.946 33.7338 134.514C33.0258 134.082 32.4678 133.476 32.0598 132.696C31.6518 131.916 31.4478 131.028 31.4478 130.032ZM39.7998 130.05C39.7998 129.306 39.6498 128.658 39.3498 128.106C39.0498 127.554 38.6418 127.134 38.1258 126.846C37.6218 126.546 37.0638 126.396 36.4518 126.396C35.8398 126.396 35.2818 126.54 34.7778 126.828C34.2738 127.116 33.8718 127.536 33.5718 128.088C33.2718 128.64 33.1218 129.288 33.1218 130.032C33.1218 130.788 33.2718 131.448 33.5718 132.012C33.8718 132.564 34.2738 132.99 34.7778 133.29C35.2818 133.578 35.8398 133.722 36.4518 133.722C37.0638 133.722 37.6218 133.578 38.1258 133.29C38.6418 132.99 39.0498 132.564 39.3498 132.012C39.6498 131.448 39.7998 130.794 39.7998 130.05ZM45.4479 133.65H50.2899V135H43.5759V133.65L48.3639 126.468H43.6119V125.136H50.2539V126.468L45.4479 133.65ZM56.7173 135.162C55.7933 135.162 54.9533 134.952 54.1973 134.532C53.4533 134.112 52.8653 133.518 52.4333 132.75C52.0133 131.97 51.8033 131.07 51.8033 130.05C51.8033 129.042 52.0193 128.154 52.4513 127.386C52.8953 126.606 53.4953 126.012 54.2513 125.604C55.0073 125.184 55.8533 124.974 56.7893 124.974C57.7253 124.974 58.5713 125.184 59.3273 125.604C60.0833 126.012 60.6773 126.6 61.1093 127.368C61.5533 128.136 61.7753 129.03 61.7753 130.05C61.7753 131.07 61.5473 131.97 61.0913 132.75C60.6473 133.518 60.0413 134.112 59.2733 134.532C58.5053 134.952 57.6533 135.162 56.7173 135.162ZM56.7173 133.722C57.3053 133.722 57.8573 133.584 58.3733 133.308C58.8893 133.032 59.3033 132.618 59.6153 132.066C59.9393 131.514 60.1013 130.842 60.1013 130.05C60.1013 129.258 59.9453 128.586 59.6333 128.034C59.3213 127.482 58.9133 127.074 58.4093 126.81C57.9053 126.534 57.3593 126.396 56.7713 126.396C56.1713 126.396 55.6193 126.534 55.1153 126.81C54.6233 127.074 54.2273 127.482 53.9273 128.034C53.6273 128.586 53.4773 129.258 53.4773 130.05C53.4773 130.854 53.6213 131.532 53.9093 132.084C54.2093 132.636 54.6053 133.05 55.0973 133.326C55.5893 133.59 56.1293 133.722 56.7173 133.722ZM68.735 124.956C69.935 124.956 70.907 125.322 71.651 126.054C72.395 126.774 72.767 127.818 72.767 129.186V135H71.147V129.42C71.147 128.436 70.901 127.686 70.409 127.17C69.917 126.642 69.245 126.378 68.393 126.378C67.529 126.378 66.839 126.648 66.323 127.188C65.819 127.728 65.567 128.514 65.567 129.546V135H63.929V125.136H65.567V126.54C65.891 126.036 66.329 125.646 66.881 125.37C67.445 125.094 68.063 124.956 68.735 124.956ZM86.8475 135L83.8595 129.87H81.8795V135H80.2415V122.454H84.2915C85.2395 122.454 86.0375 122.616 86.6855 122.94C87.3455 123.264 87.8375 123.702 88.1615 124.254C88.4855 124.806 88.6475 125.436 88.6475 126.144C88.6475 127.008 88.3955 127.77 87.8915 128.43C87.3995 129.09 86.6555 129.528 85.6595 129.744L88.8095 135H86.8475ZM81.8795 128.556H84.2915C85.1795 128.556 85.8455 128.34 86.2895 127.908C86.7335 127.464 86.9555 126.876 86.9555 126.144C86.9555 125.4 86.7335 124.824 86.2895 124.416C85.8575 124.008 85.1915 123.804 84.2915 123.804H81.8795V128.556ZM95.0986 122.454C96.4666 122.454 97.6486 122.712 98.6446 123.228C99.6526 123.732 100.421 124.458 100.949 125.406C101.489 126.354 101.759 127.47 101.759 128.754C101.759 130.038 101.489 131.154 100.949 132.102C100.421 133.038 99.6526 133.758 98.6446 134.262C97.6486 134.754 96.4666 135 95.0986 135H91.1926V122.454H95.0986ZM95.0986 133.65C96.7186 133.65 97.9546 133.224 98.8066 132.372C99.6586 131.508 100.085 130.302 100.085 128.754C100.085 127.194 99.6526 125.976 98.7886 125.1C97.9366 124.224 96.7066 123.786 95.0986 123.786H92.8306V133.65H95.0986ZM107.897 135.126C107.069 135.126 106.325 134.982 105.665 134.694C105.017 134.394 104.507 133.986 104.135 133.47C103.763 132.942 103.571 132.336 103.559 131.652H105.305C105.365 132.24 105.605 132.738 106.025 133.146C106.457 133.542 107.081 133.74 107.897 133.74C108.677 133.74 109.289 133.548 109.733 133.164C110.189 132.768 110.417 132.264 110.417 131.652C110.417 131.172 110.285 130.782 110.021 130.482C109.757 130.182 109.427 129.954 109.031 129.798C108.635 129.642 108.101 129.474 107.429 129.294C106.601 129.078 105.935 128.862 105.431 128.646C104.939 128.43 104.513 128.094 104.153 127.638C103.805 127.17 103.631 126.546 103.631 125.766C103.631 125.082 103.805 124.476 104.153 123.948C104.501 123.42 104.987 123.012 105.611 122.724C106.247 122.436 106.973 122.292 107.789 122.292C108.965 122.292 109.925 122.586 110.669 123.174C111.425 123.762 111.851 124.542 111.947 125.514H110.147C110.087 125.034 109.835 124.614 109.391 124.254C108.947 123.882 108.359 123.696 107.627 123.696C106.943 123.696 106.385 123.876 105.953 124.236C105.521 124.584 105.305 125.076 105.305 125.712C105.305 126.168 105.431 126.54 105.683 126.828C105.947 127.116 106.265 127.338 106.637 127.494C107.021 127.638 107.555 127.806 108.239 127.998C109.067 128.226 109.733 128.454 110.237 128.682C110.741 128.898 111.173 129.24 111.533 129.708C111.893 130.164 112.073 130.788 112.073 131.58C112.073 132.192 111.911 132.768 111.587 133.308C111.263 133.848 110.783 134.286 110.147 134.622C109.511 134.958 108.761 135.126 107.897 135.126Z" fill="#A0A0A0"/>
<g>
<path d="M16.0078 71.5443L25.4891 82.726L26.3417 81.7069V10.187L25.4891 9.1062L16.0078 20.2837V71.5443Z" fill="#6A6A6A"/>
<path d="M25.4922 82.7258L43.609 91.8408L44.3625 90.6206L44.3748 0.955017L43.6216 0L25.4922 9.08572V82.7258Z" fill="#727272"/>
<path d="M96.9899 20.2837L87.506 9.1062L86.4453 9.44428L86.656 81.8133L87.506 82.726L96.9899 71.5456V20.2837Z" fill="#858585"/>
<path d="M69.3895 91.8408L87.5062 82.7258V9.08572L69.3768 0L68.5195 1.16735L68.5319 90.5143L69.3895 91.8408Z" fill="#A6A6A6"/>
<path d="M43.6211 0H69.3788V91.8421H43.6211V0Z" fill="#858585"/>
</g>
<defs>
<clipPath id="clip0_5535_15345">
<rect width="81" height="92" fill="white" transform="translate(16)"/>
</clipPath>
</defs>
</svg>

<svg width="114" height="145" viewBox="0 0 114 145" fill="none" xmlns="http://www.w3.org/2000/svg"><path d="M8.802 132.21H3.33L2.322 135H.594l4.536-12.474h1.89L11.538 135H9.81l-1.008-2.79Zm-.468-1.332-2.268-6.336-2.268 6.336h4.536Zm17.043-5.922c.768 0 1.452.162 2.052.486.6.312 1.074.786 1.422 1.422.348.636.522 1.41.522 2.322V135h-1.62v-5.58c0-.984-.246-1.734-.738-2.25-.48-.528-1.134-.792-1.962-.792-.852 0-1.53.276-2.034.828-.504.54-.756 1.326-.756 2.358V135h-1.62v-5.58c0-.984-.246-1.734-.738-2.25-.48-.528-1.134-.792-1.962-.792-.852 0-1.53.276-2.034.828-.504.54-.756 1.326-.756 2.358V135h-1.638v-9.864h1.638v1.422a3.252 3.252 0 0 1 1.296-1.188 4.008 4.008 0 0 1 1.818-.414c.828 0 1.56.186 2.196.558.636.372 1.11.918 1.422 1.638a3.235 3.235 0 0 1 1.368-1.62 4.03 4.03 0 0 1 2.124-.576Zm6.07 5.076c0-1.008.205-1.89.613-2.646a4.446 4.446 0 0 1 1.674-1.782c.72-.42 1.518-.63 2.394-.63.864 0 1.614.186 2.25.558.636.372 1.11.84 1.422 1.404v-1.8h1.656V135H39.8v-1.836c-.324.576-.81 1.056-1.458 1.44-.636.372-1.38.558-2.232.558-.876 0-1.668-.216-2.376-.648-.708-.432-1.266-1.038-1.674-1.818-.408-.78-.612-1.668-.612-2.664Zm8.353.018c0-.744-.15-1.392-.45-1.944a3.098 3.098 0 0 0-1.224-1.26 3.211 3.211 0 0 0-1.674-.45c-.612 0-1.17.144-1.674.432a3.134 3.134 0 0 0-1.206 1.26c-.3.552-.45 1.2-.45 1.944 0 .756.15 1.416.45 1.98.3.552.702.978 1.206 1.278a3.314 3.314 0 0 0 1.674.432c.612 0 1.17-.144 1.674-.432.516-.3.924-.726 1.224-1.278.3-.564.45-1.218.45-1.962Zm5.648 3.6h4.842V135h-6.714v-1.35l4.788-7.182h-4.752v-1.332h6.642v1.332l-4.806 7.182Zm11.27 1.512c-.925 0-1.765-.21-2.52-.63a4.58 4.58 0 0 1-1.765-1.782c-.42-.78-.63-1.68-.63-2.7 0-1.008.216-1.896.648-2.664a4.51 4.51 0 0 1 1.8-1.782c.756-.42 1.602-.63 2.538-.63.936 0 1.782.21 2.538.63.756.408 1.35.996 1.782 1.764.444.768.666 1.662.666 2.682s-.228 1.92-.684 2.7a4.634 4.634 0 0 1-1.818 1.782c-.768.42-1.62.63-2.556.63Zm0-1.44c.587 0 1.14-.138 1.655-.414.516-.276.93-.69 1.242-1.242.324-.552.486-1.224.486-2.016s-.156-1.464-.468-2.016c-.312-.552-.72-.96-1.224-1.224a3.356 3.356 0 0 0-1.638-.414c-.6 0-1.152.138-1.656.414-.492.264-.888.672-1.188 1.224-.3.552-.45 1.224-.45 2.016 0 .804.144 1.482.432 2.034.3.552.696.966 1.188 1.242a3.372 3.372 0 0 0 1.62.396Zm12.017-8.766c1.2 0 2.172.366 2.916 1.098.744.72 1.116 1.764 1.116 3.132V135h-1.62v-5.58c0-.984-.246-1.734-.738-2.25-.492-.528-1.164-.792-2.016-.792-.864 0-1.554.27-2.07.81-.504.54-.756 1.326-.756 2.358V135h-1.638v-9.864h1.638v1.404a3.266 3.266 0 0 1 1.314-1.17 4.16 4.16 0 0 1 1.854-.414ZM86.847 135l-2.987-5.13h-1.98V135h-1.638v-12.546h4.05c.948 0 1.745.162 2.394.486.66.324 1.151.762 1.475 1.314.325.552.486 1.182.486 1.89 0 .864-.252 1.626-.756 2.286-.492.66-1.236 1.098-2.232 1.314L88.81 135h-1.962Zm-4.968-6.444h2.412c.889 0 1.555-.216 1.999-.648.444-.444.665-1.032.665-1.764 0-.744-.221-1.32-.665-1.728-.433-.408-1.099-.612-1.999-.612H81.88v4.752Zm13.22-6.102c1.368 0 2.55.258 3.546.774 1.008.504 1.776 1.23 2.304 2.178.54.948.81 2.064.81 3.348 0 1.284-.27 2.4-.81 3.348-.528.936-1.296 1.656-2.304 2.16-.996.492-2.178.738-3.546.738h-3.906v-12.546h3.906Zm0 11.196c1.62 0 2.856-.426 3.708-1.278.852-.864 1.278-2.07 1.278-3.618 0-1.56-.432-2.778-1.296-3.654-.852-.876-2.082-1.314-3.69-1.314H92.83v9.864h2.268Zm12.798 1.476c-.828 0-1.572-.144-2.232-.432-.648-.3-1.158-.708-1.53-1.224a3.178 3.178 0 0 1-.576-1.818h1.746c.06.588.3 1.086.72 1.494.432.396 1.056.594 1.872.594.78 0 1.392-.192 1.836-.576.456-.396.684-.9.684-1.512 0-.48-.132-.87-.396-1.17a2.53 2.53 0 0 0-.99-.684c-.396-.156-.93-.324-1.602-.504-.828-.216-1.494-.432-1.998-.648a3.318 3.318 0 0 1-1.278-1.008c-.348-.468-.522-1.092-.522-1.872 0-.684.174-1.29.522-1.818.348-.528.834-.936 1.458-1.224.636-.288 1.362-.432 2.178-.432 1.176 0 2.136.294 2.88.882.756.588 1.182 1.368 1.278 2.34h-1.8c-.06-.48-.312-.9-.756-1.26-.444-.372-1.032-.558-1.764-.558-.684 0-1.242.18-1.674.54-.432.348-.648.84-.648 1.476 0 .456.126.828.378 1.116.264.288.582.51.954.666.384.144.918.312 1.602.504.828.228 1.494.456 1.998.684.504.216.936.558 1.296 1.026.36.456.54 1.08.54 1.872 0 .612-.162 1.188-.486 1.728-.324.54-.804.978-1.44 1.314-.636.336-1.386.504-2.25.504Z" fill="#A0A0A0"/><path d="m16.008 71.544 9.481 11.182.853-1.02V10.188l-.853-1.08-9.481 11.177v51.26Z" fill="#6A6A6A"/><path d="M25.492 82.726 43.61 91.84l.753-1.22.013-89.666L43.622 0l-18.13 9.086v73.64Z" fill="#727272"/><path d="M96.99 20.284 87.506 9.106l-1.06.338.21 72.37.85.912 9.484-11.18V20.284Z" fill="#858585"/><path d="m69.39 91.84 18.116-9.114V9.086L69.376 0l-.857 1.167.013 89.347.858 1.327Z" fill="#A6A6A6"/><path d="M43.621 0H69.38v91.842H43.62V0Z" fill="#858585"/></svg>
